src/images/v2/lang.svg

<svg fill="none" height="25" viewBox="0 0 24 25" width="24" xmlns="http://www.w3.org/2000/svg"><path d="m11.99 2.5c-5.52 0-9.99 4.48-9.99 10s4.47 10 9.99 10c5.53 0 10.01-4.48 10.01-10s-4.48-10-10.01-10zm6.93 6h-2.95c-.313-1.23854-.7764-2.4341-1.38-3.56 1.8241.628 3.3612 1.89172 4.33 3.56zm-6.92-3.96c.83 1.2 1.48 2.53 1.91 3.96h-3.82c.43-1.43 1.08-2.76 1.91-3.96zm-7.74 9.96c-.16-.64-.26-1.31-.26-2s.1-1.36.26-2h3.38c-.08.66-.14 1.32-.14 2s.06 1.34.14 2zm.82 2h2.95c.32 1.25.78 2.45 1.38 3.56-1.82603-.6246-3.36417-1.8892-4.33-3.56zm2.95-8h-2.95c.96583-1.67082 2.50397-2.93543 4.33-3.56-.60357 1.1259-1.06702 2.32146-1.38 3.56zm3.97 11.96c-.83-1.2-1.48-2.53-1.91-3.96h3.82c-.43 1.43-1.08 2.76-1.91 3.96zm2.34-5.96h-4.68c-.09-.66-.16-1.32-.16-2s.07-1.35.16-2h4.68c.09.65.16 1.32.16 2s-.07 1.34-.16 2zm.25 5.56c.6-1.11 1.06-2.31 1.38-3.56h2.95c-.9688 1.6683-2.5059 2.932-4.33 3.56zm1.77-5.56c.08-.66.14-1.32.14-2s-.06-1.34-.14-2h3.38c.16.64.26 1.31.26 2s-.1 1.36-.26 2z" fill="#191919"/></svg>

<svg width="24" height="25" viewBox="0 0 24 25" fill="none" xmlns="http://www.w3.org/2000/svg">
<path d="M11.99 2.5C6.47 2.5 2 6.98 2 12.5C2 18.02 6.47 22.5 11.99 22.5C17.52 22.5 22 18.02 22 12.5C22 6.98 17.52 2.5 11.99 2.5ZM18.92 8.5H15.97C15.657 7.26146 15.1936 6.0659 14.59 4.94C16.4141 5.568 17.9512 6.83172 18.92 8.5ZM12 4.54C12.83 5.74 13.48 7.07 13.91 8.5H10.09C10.52 7.07 11.17 5.74 12 4.54ZM4.26 14.5C4.1 13.86 4 13.19 4 12.5C4 11.81 4.1 11.14 4.26 10.5H7.64C7.56 11.16 7.5 11.82 7.5 12.5C7.5 13.18 7.56 13.84 7.64 14.5H4.26ZM5.08 16.5H8.03C8.35 17.75 8.81 18.95 9.41 20.06C7.58397 19.4354 6.04583 18.1708 5.08 16.5ZM8.03 8.5H5.08C6.04583 6.82918 7.58397 5.56457 9.41 4.94C8.80643 6.0659 8.34298 7.26146 8.03 8.5ZM12 20.46C11.17 19.26 10.52 17.93 10.09 16.5H13.91C13.48 17.93 12.83 19.26 12 20.46ZM14.34 14.5H9.66C9.57 13.84 9.5 13.18 9.5 12.5C9.5 11.82 9.57 11.15 9.66 10.5H14.34C14.43 11.15 14.5 11.82 14.5 12.5C14.5 13.18 14.43 13.84 14.34 14.5ZM14.59 20.06C15.19 18.95 15.65 17.75 15.97 16.5H18.92C17.9512 18.1683 16.4141 19.432 14.59 20.06ZM16.36 14.5C16.44 13.84 16.5 13.18 16.5 12.5C16.5 11.82 16.44 11.16 16.36 10.5H19.74C19.9 11.14 20 11.81 20 12.5C20 13.19 19.9 13.86 19.74 14.5H16.36Z" fill="#191919"/>
</svg>
